static/assets/images/exchanges/toobit.svg

<svg width="260" height="256" viewBox="0 0 260 256" fill="none" xmlns="http://www.w3.org/2000/svg">
<path fill-rule="evenodd" clip-rule="evenodd" d="M189.319 54.3803C191.47 54.0973 193.639 53.9836 195.807 54.0402C212.48 54.1721 228.454 60.7488 240.371 72.3887C252.289 84.0285 259.224 99.8257 259.719 116.462C259.434 133.14 252.624 149.044 240.744 160.775C228.864 172.506 212.858 179.133 196.148 179.238C193.522 179.195 190.895 178.983 188.297 178.558C188.101 178.753 188.018 178.836 187.983 178.936C187.957 179.01 187.957 179.093 187.957 179.238C179.964 197.107 168.465 209.733 153.53 225.491C152.833 226.535 151.839 227.619 150.76 228.796C149.73 229.919 148.623 231.127 147.625 232.463C147.36 232.754 147.097 233.042 146.837 233.329C146.831 233.335 146.826 233.341 146.82 233.348C141.249 239.471 136.585 244.599 129.851 256C119.513 239.5 117.672 237.551 113.83 233.486C113.382 233.012 112.907 232.51 112.389 231.952C110.584 230.018 109.807 229.24 109.11 228.543C108.393 227.826 107.762 227.194 106.185 225.476C98.8741 219.015 79.7089 197.192 71.7589 179.592C58.7037 181.376 45.4167 179.026 33.77 172.874C22.1233 166.722 12.7038 157.077 6.83873 145.299C2.06919 135.664 -0.161688 124.974 0.356685 114.239C0.875059 103.504 4.12558 93.0778 9.80141 83.9449C15.4772 74.812 23.3911 67.2735 32.796 62.0412C42.2008 56.8088 52.7864 54.0552 63.5534 54.0402H64.2348C65.1341 54.0402 66.0373 54.1349 66.8902 54.2244C67.653 54.3045 68.3756 54.3803 69.019 54.3803C73.1147 47.8508 78.3172 42.0824 84.3937 37.333C87.2814 35.0882 90.169 33.1547 93.0449 31.2289C93.2371 31.1002 93.4293 30.9716 93.6214 30.8429C90.555 26.4075 84.3937 18.5569 79.2688 16.1763C77.3185 15.2254 75.8264 13.5402 75.1209 11.4912C74.4154 9.44227 74.5542 7.19749 75.5068 5.2507C76.4594 3.30391 78.1477 1.81458 80.2003 1.11034C82.253 0.406101 84.5019 0.54464 86.4522 1.49549C97.7242 6.62525 109.351 23.6867 109.351 24.0268C115.806 22.2378 122.471 21.318 129.169 21.2919C137.323 21.2353 145.422 22.6219 153.09 25.3872C153.505 24.8684 153.849 24.2965 154.112 23.6867C154.112 23.6867 166.08 6.28516 176.67 0.829468C177.635 0.358657 178.683 0.0821348 179.755 0.0156949C180.827 -0.0507451 181.902 0.0941907 182.917 0.442237C183.933 0.790283 184.87 1.33462 185.675 2.04416C186.48 2.75371 187.137 3.61457 187.609 4.57759C188.08 5.54061 188.357 6.58695 188.424 7.65684C188.491 8.72673 188.345 9.79922 187.997 10.8131C187.648 11.827 187.103 12.7624 186.392 13.5659C185.681 14.3694 184.819 15.0253 183.854 15.4961C177.707 18.9112 169.501 30.8429 168.124 32.8976C170.253 34.2631 172.305 35.7438 174.271 37.333C180.16 42.1841 185.239 47.9382 189.319 54.3803ZM100.649 52.5523C109.919 45.0418 117.557 42.066 129.51 42.0802C141.435 42.1368 149.073 45.0985 158.371 52.5664C161.132 54.6369 163.589 57.084 165.668 59.836C149.4 67.3326 140.066 80.539 132.048 91.8824L132.045 91.8864C131.304 92.9352 130.574 93.9681 129.851 94.9791C128.798 93.5639 127.736 92.101 126.653 90.6079L126.651 90.6053C118.591 79.4956 109.319 66.7156 93.3517 59.4959C95.7367 57.1152 97.568 55.2872 100.649 52.5523ZM143.38 204.391C143.38 204.391 139.163 207.579 136.338 209.45L136.14 209.591C134.017 210.938 131.549 211.641 129.035 211.616C126.52 211.59 124.067 210.838 121.972 209.45L115.484 204.391C105.922 195.49 98.1118 184.883 92.4573 173.116C102.212 168.486 110.88 161.856 117.897 153.66L123.008 148.544L109.01 129.442L101.146 137.619C88.5107 150.939 75.8475 157.741 63.8941 157.741C58.6249 157.84 53.3887 156.89 48.4916 154.946C43.5946 153.003 39.1348 150.104 35.3732 146.419C31.6116 142.735 28.6235 138.339 26.5837 133.488C24.5439 128.638 23.4933 123.43 23.4933 118.169C23.4933 112.909 24.5439 107.701 26.5837 102.85C28.6235 98 31.6116 93.604 35.3732 89.9196C39.1348 86.2352 43.5946 83.3362 48.4916 81.3923C53.3887 79.4483 58.6249 78.4983 63.8941 78.5979C73.0358 78.8869 81.8655 81.9848 89.1779 87.4687C100.457 96.3487 109.865 107.368 116.861 119.891L118.919 123.292C119.016 123.422 119.252 123.836 119.626 124.492C123.222 130.801 139.574 159.491 167.13 172.776C161.222 184.674 153.171 195.4 143.38 204.391ZM195.126 157.061C189.312 156.922 183.598 155.53 178.374 152.98C170.42 148.496 163.263 142.731 157.193 135.918C151.968 130.097 147.278 123.817 143.181 117.156C151.046 104.544 170.864 77.5776 195.466 77.9177C200.734 77.8434 205.964 78.8178 210.851 80.7839C215.737 82.75 220.182 85.6685 223.926 89.3688C227.669 93.0691 230.637 97.477 232.654 102.335C234.672 107.193 235.7 112.404 235.677 117.662C235.654 122.921 234.582 128.123 232.523 132.963C230.463 137.804 227.458 142.186 223.683 145.854C219.907 149.522 215.437 152.402 210.534 154.327C205.631 156.251 200.393 157.18 195.126 157.061Z" fill="#2E69FF"/>
<path fill-rule="evenodd" clip-rule="evenodd" d="M195.807 54.0402C193.639 53.9836 191.47 54.0973 189.319 54.3803C185.239 47.9382 180.16 42.1841 174.271 37.333C172.305 35.7438 170.253 34.2631 168.124 32.8976C169.501 30.8429 177.707 18.9112 183.854 15.4961C184.819 15.0253 185.681 14.3694 186.392 13.5659C187.103 12.7624 187.648 11.827 187.997 10.8131C188.345 9.79922 188.491 8.72673 188.424 7.65684C188.357 6.58695 188.08 5.54061 187.609 4.57759C187.137 3.61457 186.48 2.75371 185.675 2.04416C184.87 1.33462 183.933 0.790283 182.917 0.442237C181.902 0.0941907 180.827 -0.0507451 179.755 0.0156949C178.683 0.0821348 177.635 0.358657 176.67 0.829468C166.08 6.28516 154.112 23.6867 154.112 23.6867C153.849 24.2965 153.505 24.8684 153.09 25.3872C145.422 22.6219 137.323 21.2353 129.169 21.2919C122.471 21.318 115.806 22.2378 109.351 24.0268C109.351 23.6867 97.7242 6.62525 86.4522 1.49549C84.5019 0.54464 82.253 0.406101 80.2003 1.11034C78.1477 1.81458 76.4594 3.30391 75.5068 5.2507C74.5542 7.19749 74.4154 9.44227 75.1209 11.4912C75.8264 13.5402 77.3185 15.2254 79.2688 16.1763C84.3937 18.5569 90.555 26.4075 93.6214 30.8429L93.0449 31.2289C90.169 33.1547 87.2814 35.0882 84.3937 37.333C78.3172 42.0824 73.1147 47.8508 69.019 54.3803C68.3756 54.3803 67.653 54.3045 66.8902 54.2244C66.0373 54.1349 65.1341 54.0402 64.2348 54.0402H63.5534C52.7864 54.0552 42.2008 56.8088 32.796 62.0412C23.3911 67.2735 15.4772 74.812 9.80141 83.9449C4.12558 93.0778 0.875059 103.504 0.356685 114.239C-0.161688 124.974 2.06919 135.664 6.83873 145.299C12.7038 157.077 22.1233 166.722 33.77 172.874C45.4167 179.026 58.7037 181.376 71.7589 179.592C79.7089 197.192 98.8741 219.015 106.185 225.476C107.762 227.194 108.393 227.826 109.11 228.543C109.807 229.24 110.584 230.018 112.389 231.952C112.907 232.51 113.382 233.012 113.83 233.486C117.672 237.551 119.513 239.5 129.851 256C136.585 244.599 141.249 239.471 146.82 233.348L146.837 233.329C147.097 233.042 147.36 232.754 147.625 232.463C148.623 231.127 149.73 229.919 150.76 228.796C151.839 227.619 152.833 226.535 153.53 225.491C168.465 209.733 179.964 197.107 187.957 179.238C187.957 179.093 187.957 179.01 187.983 178.936C188.018 178.836 188.101 178.753 188.297 178.558C190.895 178.983 193.522 179.195 196.148 179.238C212.858 179.133 228.864 172.506 240.744 160.775C252.624 149.044 259.434 133.14 259.719 116.462C259.224 99.8257 252.289 84.0285 240.371 72.3887C228.454 60.7488 212.48 54.1721 195.807 54.0402ZM129.51 42.0802C117.557 42.066 109.919 45.0418 100.649 52.5523C97.568 55.2872 95.7367 57.1152 93.3517 59.4959C109.319 66.7156 118.591 79.4956 126.651 90.6053L126.653 90.6079C127.736 92.101 128.798 93.5639 129.851 94.9791C130.574 93.9681 131.304 92.9352 132.045 91.8864L132.048 91.8824C140.066 80.539 149.4 67.3326 165.668 59.836C163.589 57.084 161.132 54.6369 158.371 52.5664C149.073 45.0985 141.435 42.1368 129.51 42.0802ZM136.338 209.45C139.163 207.579 143.38 204.391 143.38 204.391C153.171 195.4 161.222 184.674 167.13 172.776C139.574 159.491 123.222 130.801 119.626 124.492C119.252 123.836 119.016 123.422 118.919 123.292L116.861 119.891C109.865 107.368 100.457 96.3487 89.1779 87.4687C81.8655 81.9848 73.0358 78.8869 63.8941 78.5979C58.6249 78.4983 53.3887 79.4483 48.4916 81.3923C43.5946 83.3362 39.1348 86.2352 35.3732 89.9196C31.6116 93.604 28.6235 98 26.5837 102.85C24.5439 107.701 23.4933 112.909 23.4933 118.169C23.4933 123.43 24.5439 128.638 26.5837 133.488C28.6235 138.339 31.6116 142.735 35.3732 146.419C39.1348 150.104 43.5946 153.003 48.4916 154.946C53.3887 156.89 58.6249 157.84 63.8941 157.741C75.8475 157.741 88.5107 150.939 101.146 137.619L109.01 129.442L123.008 148.544L117.897 153.66C110.88 161.856 102.212 168.486 92.4573 173.116C98.1118 184.883 105.922 195.49 115.484 204.391L121.972 209.45C124.067 210.838 126.52 211.59 129.035 211.616C131.549 211.641 134.017 210.938 136.14 209.591L136.338 209.45ZM178.374 152.98C183.598 155.53 189.312 156.922 195.126 157.061C200.393 157.18 205.631 156.251 210.534 154.327C215.437 152.402 219.907 149.522 223.683 145.854C227.458 142.186 230.463 137.804 232.523 132.963C234.582 128.123 235.654 122.921 235.677 117.662C235.7 112.404 234.672 107.193 232.654 102.335C230.637 97.477 227.669 93.0691 223.926 89.3688C220.182 85.6685 215.737 82.75 210.851 80.7839C205.964 78.8178 200.734 77.8434 195.466 77.9177C170.864 77.5776 151.046 104.544 143.181 117.156C147.278 123.817 151.968 130.097 157.193 135.918C163.263 142.731 170.42 148.496 178.374 152.98Z" fill="#2E69FF"/>
</svg>

<svg xmlns="http://www.w3.org/2000/svg" fill="none" viewBox="0 0 260 256"><path fill="#2E69FF" fill-rule="evenodd" d="M189.319 54.38a41.4 41.4 0 0 1 6.488-.34 64.5 64.5 0 0 1 44.564 18.349 64.28 64.28 0 0 1 19.348 44.073 63.8 63.8 0 0 1-18.975 44.313 64.04 64.04 0 0 1-44.596 18.463 54 54 0 0 1-7.851-.68c-.196.195-.279.278-.314.378-.026.074-.026.157-.026.302-7.993 17.869-19.492 30.495-34.427 46.253-.697 1.044-1.691 2.128-2.77 3.305-1.03 1.123-2.137 2.331-3.135 3.667l-.788.866-.017.019c-5.571 6.123-10.235 11.251-16.969 22.652-10.338-16.5-12.179-18.449-16.021-22.514-.448-.474-.923-.976-1.441-1.534a118 118 0 0 0-3.279-3.409c-.717-.717-1.348-1.349-2.925-3.067-7.31-6.461-26.476-28.284-34.426-45.884a63.06 63.06 0 0 1-37.989-6.718 62.9 62.9 0 0 1-26.931-27.575A63.14 63.14 0 0 1 9.8 83.945 63.3 63.3 0 0 1 32.796 62.04a63.45 63.45 0 0 1 30.757-8h.682c.9 0 1.802.094 2.655.183.763.08 1.486.156 2.129.156a66.5 66.5 0 0 1 15.375-17.047c2.887-2.245 5.775-4.178 8.65-6.104l.577-.386c-3.066-4.436-9.227-12.286-14.352-14.667a8.17 8.17 0 0 1-4.148-4.685 8.16 8.16 0 0 1 .386-6.24A8.18 8.18 0 0 1 80.2 1.11a8.2 8.2 0 0 1 6.252.384c11.272 5.13 22.899 22.192 22.899 22.532a75.3 75.3 0 0 1 19.818-2.735 69.1 69.1 0 0 1 23.921 4.095 7.4 7.4 0 0 0 1.022-1.7S166.08 6.285 176.67.829a8.19 8.19 0 0 1 9.005 1.215 8.17 8.17 0 0 1 2.749 5.613 8.15 8.15 0 0 1-4.57 7.84c-6.147 3.414-14.353 15.346-15.73 17.4a69 69 0 0 1 6.147 4.436 72 72 0 0 1 15.048 17.047m-88.67-1.828c9.27-7.51 16.908-10.486 28.861-10.472 11.925.057 19.563 3.019 28.861 10.486a37 37 0 0 1 7.297 7.27c-16.268 7.497-25.602 20.703-33.62 32.046l-.003.004a667 667 0 0 1-2.194 3.093 449 449 0 0 1-3.198-4.371l-.002-.003c-8.06-11.11-17.332-23.89-33.3-31.11 2.386-2.38 4.217-4.208 7.298-6.943m42.731 151.839s-4.217 3.188-7.042 5.059l-.198.141a13.02 13.02 0 0 1-14.168-.141l-6.488-5.059a104.7 104.7 0 0 1-23.027-31.275 76.9 76.9 0 0 0 25.44-19.456l5.111-5.116-13.998-19.102-7.864 8.177c-12.635 13.32-25.299 20.122-37.252 20.122a39.7 39.7 0 0 1-15.402-2.795 39.6 39.6 0 0 1-13.119-8.527 39.6 39.6 0 0 1-8.79-12.931 39.5 39.5 0 0 1 0-30.638 39.6 39.6 0 0 1 8.79-12.93 39.7 39.7 0 0 1 13.119-8.528 39.7 39.7 0 0 1 15.402-2.794 44.5 44.5 0 0 1 25.284 8.87 108.8 108.8 0 0 1 27.683 32.423l2.058 3.401c.097.13.333.544.707 1.2 3.596 6.309 19.948 34.999 47.504 48.284a108.4 108.4 0 0 1-23.75 31.615m51.746-47.33a40.4 40.4 0 0 1-16.752-4.081 82.9 82.9 0 0 1-21.181-17.062 130 130 0 0 1-14.012-18.762c7.865-12.612 27.683-39.578 52.285-39.238a39.7 39.7 0 0 1 15.385 2.866 39.7 39.7 0 0 1 13.075 8.585 39.6 39.6 0 0 1 8.728 12.966 39.5 39.5 0 0 1-.131 30.628 39.6 39.6 0 0 1-8.84 12.891 39.7 39.7 0 0 1-28.557 11.207" clip-rule="evenodd"/><path fill="#2E69FF" fill-rule="evenodd" d="M195.807 54.04a41.4 41.4 0 0 0-6.488.34 72 72 0 0 0-15.048-17.047 69 69 0 0 0-6.147-4.435c1.377-2.055 9.583-13.987 15.73-17.402a8.18 8.18 0 0 0 4.143-4.683 8.15 8.15 0 0 0-2.322-8.769 8.18 8.18 0 0 0-5.92-2.028 8.2 8.2 0 0 0-3.085.813c-10.59 5.456-22.558 22.858-22.558 22.858a7.4 7.4 0 0 1-1.022 1.7 69.1 69.1 0 0 0-23.921-4.095 75.3 75.3 0 0 0-19.818 2.735c0-.34-11.627-17.402-22.899-22.532A8.2 8.2 0 0 0 80.2 1.11a8.18 8.18 0 0 0-4.693 4.14 8.16 8.16 0 0 0-.386 6.241 8.17 8.17 0 0 0 4.148 4.685c5.125 2.38 11.286 10.232 14.352 14.667l-.576.386c-2.876 1.926-5.764 3.86-8.651 6.104A66.5 66.5 0 0 0 69.019 54.38c-.643 0-1.366-.076-2.129-.156-.853-.09-1.756-.184-2.655-.184h-.682a63.45 63.45 0 0 0-30.757 8.001A63.3 63.3 0 0 0 9.801 83.945a63.14 63.14 0 0 0-2.963 61.354 62.9 62.9 0 0 0 26.932 27.575 63.06 63.06 0 0 0 37.989 6.718c7.95 17.6 27.115 39.423 34.426 45.884 1.577 1.718 2.208 2.35 2.925 3.067.697.697 1.474 1.475 3.279 3.409.518.558.993 1.06 1.441 1.534 3.842 4.065 5.683 6.014 16.021 22.514 6.734-11.401 11.398-16.529 16.969-22.652l.017-.019.788-.866c.998-1.336 2.105-2.544 3.135-3.667 1.079-1.177 2.073-2.261 2.77-3.305 14.935-15.758 26.434-28.384 34.427-46.253 0-.145 0-.228.026-.302.035-.1.118-.183.314-.378a54 54 0 0 0 7.851.68 64.04 64.04 0 0 0 44.596-18.463 63.8 63.8 0 0 0 18.975-44.313 64.28 64.28 0 0 0-19.348-44.073 64.5 64.5 0 0 0-44.564-18.349M129.51 42.08c-11.953-.014-19.591 2.962-28.861 10.472-3.081 2.735-4.912 4.563-7.297 6.944 15.967 7.22 25.239 20 33.299 31.11l.002.002a449 449 0 0 0 3.198 4.371 667 667 0 0 0 2.194-3.093l.003-.004c8.018-11.343 17.352-24.55 33.62-32.046a37 37 0 0 0-7.297-7.27c-9.298-7.468-16.936-10.43-28.861-10.486m6.828 167.37c2.825-1.871 7.042-5.059 7.042-5.059a108.4 108.4 0 0 0 23.75-31.615c-27.556-13.285-43.908-41.975-47.504-48.284-.374-.656-.61-1.07-.707-1.2l-2.058-3.401a108.8 108.8 0 0 0-27.683-32.422 44.5 44.5 0 0 0-25.284-8.871 39.7 39.7 0 0 0-15.402 2.794 39.7 39.7 0 0 0-13.119 8.528 39.6 39.6 0 0 0-8.79 12.93 39.52 39.52 0 0 0 8.79 43.569 39.6 39.6 0 0 0 13.119 8.527 39.7 39.7 0 0 0 15.402 2.795c11.953 0 24.617-6.802 37.252-20.122l7.864-8.177 13.998 19.102-5.111 5.116a76.9 76.9 0 0 1-25.44 19.456 104.7 104.7 0 0 0 23.027 31.275l6.488 5.059a13.02 13.02 0 0 0 14.168.141zm42.036-56.47a40.4 40.4 0 0 0 16.752 4.081 39.7 39.7 0 0 0 28.557-11.207 39.53 39.53 0 0 0 11.994-28.192 39.5 39.5 0 0 0-3.023-15.327 39.6 39.6 0 0 0-8.728-12.966 39.7 39.7 0 0 0-13.075-8.585 39.7 39.7 0 0 0-15.385-2.866c-24.602-.34-44.42 26.626-52.285 39.238a130 130 0 0 0 14.012 18.762 82.9 82.9 0 0 0 21.181 17.062" clip-rule="evenodd"/></svg>
